svgs/sharp-solid/file-lines.svg

<svg xmlns="http://www.w3.org/2000/svg" viewBox="0 0 384 512"><!--! Font Awesome Pro 6.6.0 by @fontawesome - https://fontawesome.com License - https://fontawesome.com/license (Commercial License) Copyright 2024 Fonticons, Inc. --><path d="M224 0L0 0 0 512l384 0 0-352-160 0L224 0zm32 0l0 128 128 0L256 0zM112 256l160 0 16 0 0 32-16 0-160 0-16 0 0-32 16 0zm0 64l160 0 16 0 0 32-16 0-160 0-16 0 0-32 16 0zm0 64l160 0 16 0 0 32-16 0-160 0-16 0 0-32 16 0z"/></svg>

<svg xmlns="http://www.w3.org/2000/svg" viewBox="0 0 384 512"><!--! Font Awesome Pro 6.4.0 by @fontawesome - https://fontawesome.com License - https://fontawesome.com/license (Commercial License) Copyright 2023 Fonticons, Inc. --><path d="M224 0H0V512H384V160H224V0zm32 0V128H384L256 0zM112 256H272h16v32H272 112 96V256h16zm0 64H272h16v32H272 112 96V320h16zm0 64H272h16v32H272 112 96V384h16z"/></svg>
